packages/kaspersky-hexa-ui-icons/src/iconsSVGs/32/Backup.svg

<svg width="32" height="32" viewBox="0 0 32 32" fill="none" xmlns="http://www.w3.org/2000/svg">
<path d="M15.8361 5C11.9143 5 8.46859 6.99153 6.4776 10H9.99999C10.5523 10 11 10.4477 11 11C11 11.5523 10.5523 12 9.99999 12H3.99999C3.4477 12 2.99999 11.5523 2.99999 11V5C2.99999 4.44772 3.4477 4 3.99999 4C4.55227 4 4.99999 4.44772 4.99999 5V8.61686C7.3762 5.22177 11.3454 3 15.8361 3C23.0935 3 29 8.80756 29 16C29 23.1924 23.0935 29 15.8361 29C9.62352 29 4.4058 24.7474 3.02766 19.012C2.89863 18.475 3.22935 17.9351 3.76635 17.806C4.30335 17.677 4.84328 18.0077 4.97231 18.5447C6.13531 23.3848 10.5518 27 15.8361 27C22.0146 27 27 22.0624 27 16C27 9.93761 22.0146 5 15.8361 5Z" fill="black"/>
<path d="M17 10C17 9.44772 16.5523 9 16 9C15.4477 9 15 9.44772 15 10V16C15 16.2652 15.1053 16.5196 15.2929 16.7071L19.2929 20.7071C19.6834 21.0976 20.3166 21.0976 20.7071 20.7071C21.0976 20.3166 21.0976 19.6834 20.7071 19.2929L17 15.5858V10Z" fill="black"/>
</svg>

<svg xmlns="http://www.w3.org/2000/svg" width="32" height="32" fill="none" viewBox="0 0 32 32"><path fill="#000" fill-rule="evenodd" d="M15.8364 5c-3.9219 0-7.3676 1.9915-9.3585 5h3.5223c.5523 0 1 .4477 1 1s-.4477 1-1 1h-6c-.5523 0-1-.4477-1-1V5c0-.5523.4477-1 1-1s1 .4477 1 1v3.6169C7.3764 5.2218 11.3456 3 15.8364 3c7.2574 0 13.1638 5.8076 13.1638 13s-5.9064 13-13.1638 13C9.6238 29 4.406 24.7474 3.0279 19.012c-.129-.537.2017-1.0769.7387-1.206s1.077.2017 1.206.7387C6.1356 23.3848 10.552 27 15.8364 27c6.1784 0 11.1638-4.9376 11.1638-11S22.0148 5 15.8364 5m.1638 4c.5523 0 1 .4477 1 1v5.5858l3.7071 3.7071c.3906.3905.3906 1.0237 0 1.4142s-1.0237.3905-1.4142 0l-4-4A1 1 0 0 1 15.0002 16v-6c0-.5523.4477-1 1-1"/></svg>
